X: 14
T:Galway Hornpipe, The
M:4/4
L:1/8
R:Hornpipe
K:D
FE[|:D2FA dAFD|CDEF G2FE|D2FA dcdf|edcB (3ABA (3GFE|!
D2FA dAFD|CDEF G2FG|AdcB AGFE|1D2F2 D2FE:|2D2F2 D2de|!
|:fefg fedc|BABc B2cd|edef edcB|(3ABA ce a2 (3ABc|!
dcde fdAF|GFGA BdcB|AdcB AGFE|1D2F2 D2de:|2D2F2 D2FE|]!
